X: 28725
T: My Father Was A Dutchman
R: waltz
M: 3/4
K: Gmajor
D2|:G2 GFGA|B2 BABc|d2e2B2|d2c2B2|
A2 AGAB|cBA G F E|D2E2D2|B4 D2|
G2 GFGA|B2 BABc|d2e2B2|d2c2B2|
A2 AGAB|cBA GFE|D2E2F2|1 G4 D2:|2 G4 D G||
B2 B2 DG|B2 B2 DG|B2 c2 d2|e2 d2 DF|
A2 A2 DF|A2 A2 DF|A2 B2 c2|e2 d2 DG|
B2 B2 DG|B2 B2 DG|B2 c2 d2|e2 d2 B2|
A2 AGAB|cBA GFE|D2E2F2|1 G4 D G:|2 G4 D||

